X:1
T: James Macpherson's Reel
C:William Macpherson
R:Reel
Q: 232
K:D
M:4/4
L:1/8
|:A,|DC DE FD AF|GE ed cA Bc|d2 Ad f2 df|ed cB AG FE|
DA, DF AF DF|GE ed cA Bc|d2 fd B2 ge|aA, CE D3E|
DF AF dA fF|GE BG eB ge|^ge dB ^GE dB|ag ec AG FE|
DC DE FD AF|GE ed cA Bc|df af ((3gec) ((3AGE) |D2 d2 D3:|
